X:11934
T:no name
R:polka
D:Paul McGrattan: The Frost is All Over
Z:id:hn-polka-50
M:2/4
L:1/8
K:D
Af A>A|Bg B>B|Ad fg/f/|ed B/c/d/B/|Af A>A|Bg B>B|Ad fg/f/|ed d>B:|
|:Ad f>g|fe e>d|ef ga|ba f>f|Ad f>g|fe e>d|ef gc|ed d>B:|
